client/public/images/logos/associatedpress.svg

<svg version="1.1" xmlns="http://www.w3.org/2000/svg" xmlns:xlink="http://www.w3.org/1999/xlink" width="2131" height="2500" viewBox="0,0,218.20313,256"><g fill="none" fill-rule="evenodd" stroke="none" stroke-width="1" stroke-linecap="butt" stroke-linejoin="miter" stroke-miterlimit="10" stroke-dasharray="" stroke-dashoffset="0" font-family="none" font-weight="none" font-size="none" text-anchor="none" style="mix-blend-mode: normal"><g transform="translate(-0.00564,-0.70177) scale(2.90953,2.94863)"><g><path d="M0,77.994h75v-77.756h-75z" fill="#000000"></path><path d="M0,77.994h75v9.064h-75z" fill="#ff322e"></path><g fill="#ffffff"><path d="M17.263,20.699l-12.607,37.816h9.128l8.563,-26.73l4.293,13.365h-5.552l-2.217,7.628h10.219l1.843,5.738h9.388l-12.606,-37.817zM54.664,20.699h-13.105v37.816h9.063v-30.187h3.651c4.238,0 6.65,2.02 6.65,5.672c0,3.586 -2.412,5.672 -6.65,5.672h-0.586v7.628h0.977c9.78,0 15.517,-4.923 15.517,-13.3c0,-8.541 -5.737,-13.301 -15.517,-13.301"></path></g></g></g></g></svg>

<svg height="2500" width="2131" xmlns="http://www.w3.org/2000/svg" viewBox="0 0.238 75 86.82"><mask id="a" fill="#fff"><path d="M0 87.043h75V.238H0z" fill="none"/></mask><g fill="none" fill-rule="evenodd"><path d="M0 77.994h75V.238H0z" fill="#fff" mask="url(#a)"/><path d="M0 77.994h75v9.064H0z" fill="#ff322e" mask="url(#a)"/><g fill="#000"><path d="M17.263 20.699L4.656 58.515h9.128l8.563-26.73L26.64 45.15h-5.552l-2.217 7.628h10.219l1.843 5.738h9.388L27.715 20.699zM54.664 20.699H41.559v37.816h9.063V28.328h3.651c4.238 0 6.65 2.02 6.65 5.672 0 3.586-2.412 5.672-6.65 5.672h-.586V47.3h.977c9.78 0 15.517-4.923 15.517-13.3 0-8.541-5.737-13.301-15.517-13.301"/></g></g></svg>
